X:53233 
F:http://www.vwml.org/record/HAM/5/32/33
%%VWML:HAM-5-32-33-0 
T:Twelve Apostles, The
S:Mrs Marina Russell, Upwey coll. HED Hammond
O:England
A:Dorset
N:Transcribed from HAM-05-085.gif
F:HAM-05-32-33.abc
Z:EFDSS;PJHeadford
M:2/4
L:1/8
Q:1/4=60
K:Ab
c2c> B|A> GF2||c2c> B|A> GF2||c> c c> B|A2 F2||
w:|||||12 Oh!
c2c> B|A2 F2||A A/ A/ A A|B2B B|A A A A|B B B< B|
w:||12|**e-levn th'e-levn
c c/ c/ c B|A2F2|A A A A|B BB2|c c/ c/ c G&xxxB|A2 F2|
w: 10 are the||9||8
Axxx|Bxxx|cxxx|A2F2|A A/ A/ A A|B B/ B/B2|
w:7||6||5 are the
c> c c B|A2F2|A A A A|B2B2|A A A A|B/ B/ BB2|c c c B|
w:4||3 of them are ri-vers, 2 of them
A2F2|A A A A|B B B B|c> d c B|A2 F2||
w:|One
% downloaded from http://folkopedia.efdss.org/HAM-05-32-34.abc
